svg/frogBender.svg

<?xml version="1.0" encoding="utf-8"?>
<!-- Generator: Adobe Illustrator 25.0.0, SVG Export Plug-In . SVG Version: 6.00 Build 0)  -->
<svg version="1.1" id="Ebene_1" xmlns="http://www.w3.org/2000/svg" xmlns:xlink="http://www.w3.org/1999/xlink" x="0px" y="0px"
	 viewBox="0 0 36 36" style="enable-background:new 0 0 36 36;" xml:space="preserve">
<style type="text/css">
	.st0{fill:#F4900C;}
	.st1{fill:#FFAC33;}
	.st2{fill:#FFCC4D;}
	.st3{fill:#5C913B;}
	.st4{fill:#77B255;}
	.st5{fill:#F5F8FA;}
	.st6{fill:#CCD6DD;}
	.st7{fill:#FFFFFF;}
	.st8{fill:#292F33;}
	.st9{fill:none;}
</style>
<g id="Ebene_2_1_">
	<g id="Ebene_1-2">
		<ellipse class="st0" cx="33.5" cy="14.5" rx="2.5" ry="3.5"/>
		<ellipse class="st0" cx="2.5" cy="14.5" rx="2.5" ry="3.5"/>
		<path class="st1" d="M34,19c0,0.6-0.4,1-1,1h-3c-0.6,0-1-0.4-1-1v-9c0-0.6,0.4-1,1-1h3c0.6,0,1,0.4,1,1V19z M7,19c0,0.6-0.4,1-1,1
			H3c-0.6,0-1-0.4-1-1v-9c0-0.6,0.4-1,1-1h3c0.6,0,1,0.4,1,1V19z"/>
		<path class="st2" d="M28,5c0,2.8-4.5,4-10,4S8,7.8,8,5s4.5-5,10-5S28,2.2,28,5z"/>
		<path class="st0" d="M25,4.1C25,5.7,21.9,7,18,7s-7-1.3-7-2.9s3.1-2.9,7-2.9S25,2.5,25,4.1z"/>
		<path class="st3" d="M30,5.5C30,6.9,28.9,7,27.5,7h-19C7.1,7,6,6.9,6,5.5C6,4.1,7.1,3,8.5,3h19C28.9,3,30,4.1,30,5.5z"/>
		<path class="st4" d="M30,6H6C4.9,6,4,6.9,4,8v26h28V8C32,6.9,31.1,6,30,6z"/>
		<path class="st3" d="M35,33v-1c0-1.1-0.9-2-2-2H22.1l-3.4,3.4c-0.4,0.4-1,0.4-1.4,0c0,0,0,0,0,0L13.9,30H3c-1.1,0-2,0.9-2,2v1
			c0,1.1-0.1,2,1,2h32C35.1,35,35,34.1,35,33z"/>
		<path class="st5" d="M29,25.5c0,1.4-1.1,2.5-2.5,2.5h-17C8.1,28,7,26.9,7,25.5S8.1,23,9.5,23h17C27.9,23,29,24.1,29,25.5z"/>
		<path class="st6" d="M17,23h2v5h-2V23z M12,23h2v5h-2V23z M22,23h2v5h-2V23z M7,25.5c0,1.2,0.8,2.3,2,2.5v-4.9
			C7.9,23.3,7,24.3,7,25.5z M27,23v5c1.4-0.3,2.2-1.6,2-2.9C28.8,24.1,28,23.3,27,23L27,23z"/>
		<circle class="st7" cx="11.5" cy="14.4" r="3.5"/>
		<circle class="st8" cx="11.5" cy="14.4" r="1.5"/>
		<circle class="st7" cx="24.5" cy="14.6" r="3.5"/>
		<circle class="st8" cx="24.5" cy="14.6" r="1.5"/>
		<rect y="0" class="st9" width="36" height="36"/>
	</g>
</g>
</svg>

<svg xmlns="http://www.w3.org/2000/svg" viewBox="0 0 36 36"><defs><style>.cls-1{fill:#f4900c;}.cls-2{fill:#ffac33;}.cls-3{fill:#ffcc4d;}.cls-4{fill:#5c913b;}.cls-5{fill:#77b255;}.cls-6{fill:#f5f8fa;}.cls-7{fill:#ccd6dd;}.cls-8{fill:#fff;}.cls-9{fill:#292f33;}.cls-10{fill:none;}</style></defs><g id="Ebene_2" data-name="Ebene 2"><g id="Ebene_1-2" data-name="Ebene 1"><ellipse class="cls-1" cx="33.5" cy="14.5" rx="2.5" ry="3.5"/><ellipse class="cls-1" cx="2.5" cy="14.5" rx="2.5" ry="3.5"/><path class="cls-2" d="M34,19a1,1,0,0,1-1,1H30a1,1,0,0,1-1-1V10a1,1,0,0,1,1-1h3a1,1,0,0,1,1,1ZM7,19a1,1,0,0,1-1,1H3a1,1,0,0,1-1-1V10A1,1,0,0,1,3,9H6a1,1,0,0,1,1,1Z"/><path class="cls-3" d="M28,5c0,2.76-4.48,4-10,4S8,7.76,8,5s4.48-5,10-5S28,2.24,28,5Z"/><path class="cls-1" d="M25,4.08C25,5.69,21.86,7,18,7s-7-1.31-7-2.92,3.13-2.91,7-2.91S25,2.47,25,4.08Z"/><path class="cls-4" d="M30,5.5C30,6.88,28.88,7,27.5,7H8.5C7.12,7,6,6.88,6,5.5A2.5,2.5,0,0,1,8.5,3h19A2.5,2.5,0,0,1,30,5.5Z"/><path class="cls-5" d="M30,6H6A2,2,0,0,0,4,8V34H32V8A2,2,0,0,0,30,6Z"/><path class="cls-4" d="M35,33V32a2,2,0,0,0-2-2H22.07l-3.36,3.36a1,1,0,0,1-1.42,0L13.93,30H3a2,2,0,0,0-2,2v1c0,1.1-.1,2,1,2H34C35.1,35,35,34.1,35,33Z"/><path class="cls-6" d="M29,25.5A2.5,2.5,0,0,1,26.5,28H9.5a2.5,2.5,0,0,1,0-5h17A2.5,2.5,0,0,1,29,25.5Z"/><path class="cls-7" d="M17,23h2v5H17Zm-5,0h2v5H12Zm10,0h2v5H22ZM7,25.5A2.5,2.5,0,0,0,9,28v-4.9A2.5,2.5,0,0,0,7,25.5Zm20-2.45V28a2.5,2.5,0,0,0,0-4.9Z"/><circle class="cls-8" cx="11.5" cy="14.38" r="3.5"/><circle class="cls-9" cx="11.5" cy="14.38" r="1.5"/><circle class="cls-8" cx="24.5" cy="14.57" r="3.5"/><circle class="cls-9" cx="24.5" cy="14.57" r="1.5"/><rect class="cls-10" width="36" height="36"/></g></g></svg>
